dist/images/icons/company-logo.svg

<svg width="106" height="27" viewBox="0 0 106 27" fill="none" xmlns="http://www.w3.org/2000/svg">
<path d="M46.636 5.44817C46.636 4.48817 46.928 3.73617 47.512 3.19217C48.096 2.64817 48.924 2.37617 49.996 2.37617C51.7 2.37617 52.776 3.05617 53.224 4.41617C53.288 4.61617 53.22 4.75217 53.02 4.82417L52.528 4.99217C52.416 5.03217 52.328 5.04017 52.264 5.01617C52.208 4.98417 52.16 4.91217 52.12 4.80017C51.968 4.34417 51.724 4.00817 51.388 3.79217C51.052 3.56817 50.588 3.45617 49.996 3.45617C49.284 3.45617 48.74 3.62817 48.364 3.97217C47.988 4.31617 47.8 4.80417 47.8 5.43617V8.19617C47.8 8.82017 47.988 9.30817 48.364 9.66017C48.748 10.0042 49.292 10.1762 49.996 10.1762C50.596 10.1762 51.064 10.0642 51.4 9.84017C51.736 9.61617 51.98 9.27217 52.132 8.80817C52.172 8.68817 52.22 8.61617 52.276 8.59217C52.34 8.56017 52.428 8.56417 52.54 8.60417L53.032 8.78417C53.24 8.84817 53.308 8.98417 53.236 9.19217C52.788 10.5682 51.708 11.2562 49.996 11.2562C48.924 11.2562 48.096 10.9842 47.512 10.4402C46.928 9.89617 46.636 9.14417 46.636 8.18417V5.44817ZM58.0203 2.30417C58.4123 2.30417 58.7123 2.25617 58.9203 2.16017C59.1123 2.06417 59.2483 2.12417 59.3283 2.34017L59.4603 2.71217C59.5163 2.88817 59.4563 3.02017 59.2803 3.10817C59.0323 3.23617 58.6203 3.30017 58.0443 3.30017H57.6363C56.7483 3.30017 56.1443 3.47217 55.8243 3.81617C55.5043 4.15217 55.3443 4.76417 55.3443 5.65217V5.88017C55.7283 5.30417 56.3723 5.01617 57.2763 5.01617C58.0603 5.01617 58.6683 5.22817 59.1003 5.65217C59.5403 6.07617 59.7603 6.66417 59.7603 7.41617V8.86817C59.7603 9.62017 59.5283 10.2082 59.0643 10.6322C58.6083 11.0482 57.9363 11.2562 57.0483 11.2562C56.1763 11.2562 55.5083 11.0482 55.0443 10.6322C54.5803 10.2082 54.3483 9.62017 54.3483 8.86817V5.94017C54.3483 4.64417 54.5923 3.71617 55.0803 3.15617C55.5683 2.58817 56.4163 2.30417 57.6243 2.30417H58.0203ZM58.6803 7.41617C58.6803 6.96017 58.5403 6.60817 58.2603 6.36017C57.9883 6.11217 57.5843 5.98817 57.0483 5.98817C56.5603 5.98817 56.1723 6.10817 55.8843 6.34817C55.6043 6.58017 55.4523 6.84017 55.4283 7.12817V8.85617C55.4283 9.31217 55.5643 9.66417 55.8363 9.91217C56.1163 10.1602 56.5203 10.2842 57.0483 10.2842C57.5843 10.2842 57.9883 10.1602 58.2603 9.91217C58.5403 9.66417 58.6803 9.31217 58.6803 8.85617V7.41617ZM60.8489 7.00817C60.8489 6.28817 61.0849 5.72417 61.5569 5.31617C62.0369 4.90817 62.6969 4.70417 63.5369 4.70417C64.3929 4.70417 65.0569 4.90817 65.5289 5.31617C66.0009 5.72417 66.2369 6.28817 66.2369 7.00817V8.96417C66.2369 9.67617 66.0009 10.2362 65.5289 10.6442C65.0569 11.0522 64.3929 11.2562 63.5369 11.2562C62.6969 11.2562 62.0369 11.0522 61.5569 10.6442C61.0849 10.2362 60.8489 9.67617 60.8489 8.96417V7.00817ZM65.1689 6.99617C65.1689 6.58017 65.0249 6.25617 64.7369 6.02417C64.4489 5.79217 64.0489 5.67617 63.5369 5.67617C63.0329 5.67617 62.6369 5.79217 62.3489 6.02417C62.0609 6.25617 61.9169 6.58017 61.9169 6.99617V8.96417C61.9169 9.38017 62.0609 9.70417 62.3489 9.93617C62.6369 10.1682 63.0329 10.2842 63.5369 10.2842C64.0489 10.2842 64.4489 10.1682 64.7369 9.93617C65.0249 9.70417 65.1689 9.38017 65.1689 8.96417V6.99617ZM67.9891 5.05217C68.5891 4.82017 69.3251 4.70417 70.1971 4.70417C71.8691 4.70417 72.7051 5.50817 72.7051 7.11617V8.80817C72.7051 10.4402 71.8531 11.2562 70.1491 11.2562C69.7331 11.2562 69.2131 11.1482 68.5891 10.9322V13.4282C68.5891 13.5402 68.5691 13.6162 68.5291 13.6562C68.4891 13.6962 68.4131 13.7162 68.3011 13.7162H67.7971C67.6931 13.7162 67.6211 13.6922 67.5811 13.6442C67.5411 13.6042 67.5211 13.5322 67.5211 13.4282V5.73617C67.5211 5.53617 67.5491 5.39217 67.6051 5.30417C67.6691 5.21617 67.7971 5.13217 67.9891 5.05217ZM71.6251 7.15217C71.6251 6.17617 71.0971 5.68817 70.0411 5.68817C69.6011 5.68817 69.1771 5.74817 68.7691 5.86817C68.6891 5.90017 68.6371 5.93217 68.6131 5.96417C68.5971 5.99617 68.5891 6.04817 68.5891 6.12017V9.96017C69.1891 10.1682 69.6811 10.2722 70.0651 10.2722C71.1051 10.2722 71.6251 9.77217 71.6251 8.77217V7.15217ZM79.2218 10.7402C79.2938 10.8602 79.3138 10.9482 79.2818 11.0042C79.2578 11.0522 79.1778 11.0762 79.0418 11.0762H78.5738C78.4138 11.0762 78.3058 11.0602 78.2498 11.0282C78.1938 10.9962 78.1378 10.9242 78.0818 10.8122L77.2538 9.07217C77.1418 8.83217 77.0018 8.66417 76.8338 8.56817C76.6738 8.46417 76.4538 8.41217 76.1738 8.41217H75.0818V10.7762C75.0818 10.8882 75.0578 10.9682 75.0098 11.0162C74.9698 11.0562 74.8938 11.0762 74.7818 11.0762H74.3018C74.1898 11.0762 74.1098 11.0562 74.0618 11.0162C74.0218 10.9682 74.0018 10.8882 74.0018 10.7762V5.17217C74.0018 5.06017 74.0218 4.98417 74.0618 4.94417C74.1098 4.90417 74.1898 4.88417 74.3018 4.88417H74.7818C74.8938 4.88417 74.9698 4.90417 75.0098 4.94417C75.0578 4.98417 75.0818 5.06017 75.0818 5.17217V7.41617H76.0298H76.1378L77.9258 5.10017C77.9978 4.99617 78.0658 4.93617 78.1298 4.92017C78.1938 4.89617 78.3138 4.88417 78.4898 4.88417H78.9458C79.2418 4.88417 79.3018 4.99617 79.1258 5.22017L77.2058 7.62017C77.5898 7.76417 77.9098 8.09217 78.1658 8.60417L79.2218 10.7402ZM80.1162 5.96417C80.5482 5.12417 81.3602 4.70417 82.5522 4.70417C83.4562 4.70417 84.0962 4.92017 84.4722 5.35217C84.8482 5.78417 85.0362 6.37617 85.0362 7.12817V10.2602C85.0362 10.4682 85.0042 10.6162 84.9402 10.7042C84.8842 10.7922 84.7722 10.8722 84.6042 10.9442C84.1242 11.1522 83.4362 11.2562 82.5402 11.2562C81.5402 11.2562 80.8522 11.1042 80.4762 10.8002C80.1002 10.4882 79.9122 10.0042 79.9122 9.34817C79.9122 8.65217 80.1162 8.16417 80.5242 7.88417C80.9322 7.60417 81.6202 7.46417 82.5882 7.46417C83.0202 7.46417 83.4762 7.49217 83.9562 7.54817V7.09217C83.9562 6.62817 83.8482 6.27617 83.6322 6.03617C83.4242 5.78817 83.0562 5.66417 82.5282 5.66417C81.8322 5.66417 81.3362 5.90817 81.0402 6.39617C80.9682 6.49217 80.9122 6.55217 80.8722 6.57617C80.8322 6.59217 80.7562 6.58017 80.6442 6.54017L80.2722 6.37217C80.0722 6.29217 80.0202 6.15617 80.1162 5.96417ZM83.9562 8.43617C83.3162 8.37217 82.8202 8.34017 82.4682 8.34017C81.9162 8.34017 81.5322 8.42017 81.3162 8.58017C81.1002 8.74017 80.9922 8.99617 80.9922 9.34817C80.9922 9.69217 81.0922 9.94817 81.2922 10.1162C81.5002 10.2762 81.8842 10.3562 82.4442 10.3562C83.0522 10.3562 83.4962 10.3082 83.7762 10.2122C83.8962 10.1642 83.9562 10.0762 83.9562 9.94817V8.43617ZM53.212 15.5562C53.436 15.5562 53.504 15.6602 53.416 15.8682L50.416 23.8122C50.36 23.9882 50.232 24.0762 50.032 24.0762H49.54C49.332 24.0762 49.2 23.9922 49.144 23.8242L46.144 15.8682C46.072 15.6602 46.144 15.5562 46.36 15.5562H46.828C47.02 15.5562 47.152 15.5762 47.224 15.6162C47.296 15.6482 47.352 15.7202 47.392 15.8322L49.48 21.5922C49.528 21.7282 49.572 21.8842 49.612 22.0602C49.66 22.2362 49.696 22.3842 49.72 22.5042C49.752 22.6162 49.772 22.6802 49.78 22.6962H49.828C49.836 22.6802 49.852 22.6162 49.876 22.5042C49.908 22.3842 49.944 22.2402 49.984 22.0722C50.032 21.8962 50.08 21.7402 50.128 21.6042L52.192 15.8322C52.232 15.7202 52.288 15.6482 52.36 15.6162C52.44 15.5762 52.576 15.5562 52.768 15.5562H53.212ZM53.4309 20.0082C53.4309 19.2882 53.6669 18.7242 54.1389 18.3162C54.6189 17.9082 55.2789 17.7042 56.1189 17.7042C56.9749 17.7042 57.6389 17.9082 58.1109 18.3162C58.5829 18.7242 58.8189 19.2882 58.8189 20.0082V21.9642C58.8189 22.6762 58.5829 23.2362 58.1109 23.6442C57.6389 24.0522 56.9749 24.2562 56.1189 24.2562C55.2789 24.2562 54.6189 24.0522 54.1389 23.6442C53.6669 23.2362 53.4309 22.6762 53.4309 21.9642V20.0082ZM57.7509 19.9962C57.7509 19.5802 57.6069 19.2562 57.3189 19.0242C57.0309 18.7922 56.6309 18.6762 56.1189 18.6762C55.6149 18.6762 55.2189 18.7922 54.9309 19.0242C54.6429 19.2562 54.4989 19.5802 54.4989 19.9962V21.9642C54.4989 22.3802 54.6429 22.7042 54.9309 22.9362C55.2189 23.1682 55.6149 23.2842 56.1189 23.2842C56.6309 23.2842 57.0309 23.1682 57.3189 22.9362C57.6069 22.7042 57.7509 22.3802 57.7509 21.9642V19.9962ZM62.7551 17.7042H63.1391C63.2511 17.7042 63.3271 17.7282 63.3671 17.7762C63.4071 17.8162 63.4271 17.8882 63.4271 17.9922V18.4002C63.4271 18.5042 63.4071 18.5802 63.3671 18.6282C63.3271 18.6682 63.2511 18.6882 63.1391 18.6882H62.7191C62.2391 18.6882 61.7791 18.7562 61.3391 18.8922C61.2271 18.9322 61.1711 19.0122 61.1711 19.1322V23.7882C61.1711 23.9002 61.1511 23.9762 61.1111 24.0162C61.0711 24.0562 60.9951 24.0762 60.8831 24.0762H60.3791C60.2751 24.0762 60.2031 24.0562 60.1631 24.0162C60.1231 23.9682 60.1031 23.8922 60.1031 23.7882V18.7482C60.1031 18.5562 60.1311 18.4162 60.1871 18.3282C60.2511 18.2402 60.3751 18.1562 60.5591 18.0762C61.1591 17.8442 61.8911 17.7202 62.7551 17.7042ZM63.8606 20.0082C63.8606 19.2882 64.0966 18.7242 64.5686 18.3162C65.0486 17.9082 65.7086 17.7042 66.5486 17.7042C67.4046 17.7042 68.0686 17.9082 68.5406 18.3162C69.0126 18.7242 69.2486 19.2882 69.2486 20.0082V21.9642C69.2486 22.6762 69.0126 23.2362 68.5406 23.6442C68.0686 24.0522 67.4046 24.2562 66.5486 24.2562C65.7086 24.2562 65.0486 24.0522 64.5686 23.6442C64.0966 23.2362 63.8606 22.6762 63.8606 21.9642V20.0082ZM68.1806 19.9962C68.1806 19.5802 68.0366 19.2562 67.7486 19.0242C67.4606 18.7922 67.0606 18.6762 66.5486 18.6762C66.0446 18.6762 65.6486 18.7922 65.3606 19.0242C65.0726 19.2562 64.9286 19.5802 64.9286 19.9962V21.9642C64.9286 22.3802 65.0726 22.7042 65.3606 22.9362C65.6486 23.1682 66.0446 23.2842 66.5486 23.2842C67.0606 23.2842 67.4606 23.1682 67.7486 22.9362C68.0366 22.7042 68.1806 22.3802 68.1806 21.9642V19.9962ZM71.3128 15.1962C71.4248 15.1962 71.5008 15.2162 71.5408 15.2562C71.5808 15.2962 71.6008 15.3722 71.6008 15.4842V18.0042C72.2248 17.8042 72.7888 17.7042 73.2928 17.7042C74.1088 17.7042 74.7168 17.9122 75.1168 18.3282C75.5168 18.7362 75.7168 19.3202 75.7168 20.0802V21.7602C75.7168 23.4242 74.8368 24.2562 73.0768 24.2562C72.2688 24.2562 71.5688 24.1322 70.9768 23.8842C70.7848 23.7962 70.6608 23.7122 70.6048 23.6322C70.5568 23.5522 70.5328 23.4162 70.5328 23.2242V15.4842C70.5328 15.3802 70.5528 15.3082 70.5928 15.2682C70.6328 15.2202 70.7048 15.1962 70.8088 15.1962H71.3128ZM74.6368 20.1162C74.6368 19.1642 74.1368 18.6882 73.1368 18.6882C72.6648 18.6882 72.1528 18.7922 71.6008 19.0002V22.8522C71.6008 22.9642 71.6568 23.0402 71.7688 23.0802C72.1208 23.2082 72.5328 23.2722 73.0048 23.2722C74.0928 23.2722 74.6368 22.7562 74.6368 21.7242V20.1162ZM76.7975 20.2722C76.7975 19.4562 77.0295 18.8242 77.4935 18.3762C77.9575 17.9282 78.6295 17.7042 79.5095 17.7042C80.3975 17.7042 81.0695 17.9322 81.5255 18.3882C81.9895 18.8442 82.2215 19.4442 82.2215 20.1882V20.8842C82.2215 21.1642 82.0735 21.3042 81.7775 21.3042H77.8655V21.8802C77.8655 22.3442 78.0015 22.7002 78.2735 22.9482C78.5535 23.1962 78.9535 23.3202 79.4735 23.3202C80.2575 23.3202 80.8135 23.0442 81.1415 22.4922C81.2135 22.3882 81.2815 22.3282 81.3455 22.3122C81.4175 22.2962 81.5055 22.3202 81.6095 22.3842L81.9335 22.5522C82.1415 22.6562 82.1775 22.8122 82.0415 23.0202C81.5695 23.8442 80.7095 24.2562 79.4615 24.2562C78.5655 24.2562 77.8975 24.0322 77.4575 23.5842C77.0175 23.1362 76.7975 22.5282 76.7975 21.7602V20.2722ZM81.1535 20.1282C81.1535 19.6482 81.0135 19.2762 80.7335 19.0122C80.4535 18.7482 80.0455 18.6162 79.5095 18.6162C78.9735 18.6162 78.5655 18.7522 78.2855 19.0242C78.0055 19.2882 77.8655 19.6562 77.8655 20.1282V20.4762H81.1535V20.1282ZM88.2717 17.8842C88.3837 17.8842 88.4597 17.9042 88.4997 17.9442C88.5397 17.9842 88.5597 18.0602 88.5597 18.1722V24.3762C88.5597 26.1042 87.6957 26.9682 85.9677 26.9682C84.8077 26.9682 83.9957 26.5602 83.5317 25.7442C83.4037 25.5442 83.4437 25.3922 83.6517 25.2882L83.9997 25.0962C84.1117 25.0402 84.1997 25.0202 84.2637 25.0362C84.3277 25.0522 84.3957 25.1082 84.4677 25.2042C84.7797 25.7402 85.2757 26.0082 85.9557 26.0082C86.9797 26.0082 87.4917 25.4802 87.4917 24.4242V23.7762C86.8757 23.9442 86.3157 24.0282 85.8117 24.0282C84.1877 24.0282 83.3757 23.2362 83.3757 21.6522V18.1722C83.3757 18.0602 83.3957 17.9842 83.4357 17.9442C83.4757 17.9042 83.5517 17.8842 83.6637 17.8842H84.1677C84.2717 17.8842 84.3437 17.9082 84.3837 17.9562C84.4237 17.9962 84.4437 18.0682 84.4437 18.1722V21.6162C84.4437 22.5682 84.9477 23.0442 85.9557 23.0442C86.4357 23.0442 86.9477 22.9602 87.4917 22.7922V18.1722C87.4917 18.0602 87.5117 17.9842 87.5517 17.9442C87.5997 17.9042 87.6757 17.8842 87.7797 17.8842H88.2717ZM96.9565 23.7642C97.0285 23.9722 96.9565 24.0762 96.7405 24.0762H96.2725C96.0805 24.0762 95.9445 24.0602 95.8645 24.0282C95.7925 23.9882 95.7365 23.9122 95.6965 23.8002L94.9525 21.8442H91.4005L90.6565 23.8002C90.6165 23.9122 90.5565 23.9882 90.4765 24.0282C90.4045 24.0602 90.2725 24.0762 90.0805 24.0762H89.6605C89.4445 24.0762 89.3725 23.9722 89.4445 23.7642L92.5645 15.7962C92.6205 15.6202 92.7525 15.5322 92.9605 15.5322H93.4405C93.6485 15.5322 93.7805 15.6162 93.8365 15.7842L96.9565 23.7642ZM93.4285 17.7402C93.2845 17.3162 93.2125 16.9402 93.2125 16.6122H93.1405L93.1285 16.7802C93.1205 16.8842 93.1005 17.0282 93.0685 17.2122C93.0365 17.3962 92.9925 17.5682 92.9365 17.7282L91.7245 20.8962H94.6285L93.4285 17.7402ZM100.489 17.7042H100.873C100.985 17.7042 101.061 17.7282 101.101 17.7762C101.141 17.8162 101.161 17.8882 101.161 17.9922V18.4002C101.161 18.5042 101.141 18.5802 101.101 18.6282C101.061 18.6682 100.985 18.6882 100.873 18.6882H100.453C99.9735 18.6882 99.5135 18.7562 99.0735 18.8922C98.9615 18.9322 98.9055 19.0122 98.9055 19.1322V23.7882C98.9055 23.9002 98.8855 23.9762 98.8455 24.0162C98.8055 24.0562 98.7295 24.0762 98.6175 24.0762H98.1135C98.0095 24.0762 97.9375 24.0562 97.8975 24.0162C97.8575 23.9682 97.8375 23.8922 97.8375 23.7882V18.7482C97.8375 18.5562 97.8655 18.4162 97.9215 18.3282C97.9855 18.2402 98.1095 18.1562 98.2935 18.0762C98.8935 17.8442 99.6255 17.7202 100.489 17.7042ZM103.402 16.4442C103.506 16.4442 103.578 16.4642 103.618 16.5042C103.666 16.5442 103.69 16.6202 103.69 16.7322V17.8842H105.262C105.366 17.8842 105.438 17.9082 105.478 17.9562C105.518 17.9962 105.538 18.0682 105.538 18.1722V18.5922C105.538 18.6962 105.518 18.7722 105.478 18.8202C105.438 18.8602 105.366 18.8802 105.262 18.8802H103.69V21.6762C103.69 22.3082 103.798 22.7282 104.014 22.9362C104.23 23.1362 104.638 23.2362 105.238 23.2362C105.35 23.2362 105.426 23.2562 105.466 23.2962C105.514 23.3362 105.538 23.4122 105.538 23.5242V23.9562C105.538 24.0602 105.514 24.1322 105.466 24.1722C105.426 24.2122 105.35 24.2362 105.238 24.2442C104.27 24.2682 103.59 24.1002 103.198 23.7402C102.814 23.3722 102.622 22.6922 102.622 21.7002V18.8802H101.626C101.522 18.8802 101.446 18.8602 101.398 18.8202C101.358 18.7722 101.338 18.6962 101.338 18.5922V18.1722C101.338 18.0602 101.358 17.9842 101.398 17.9442C101.446 17.9042 101.522 17.8842 101.626 17.8842H102.622V16.7322C102.622 16.6202 102.642 16.5442 102.682 16.5042C102.722 16.4642 102.794 16.4442 102.898 16.4442H103.402Z" fill="#3F75FF"/>
<line x1="35.5" y1="0.0761719" x2="35.5" y2="25.9942" stroke="#3F75FF"/>
<path d="M10.8138 18.8553L0 25.9942C3.3964 23.4024 8.93994 18.6735 10.8138 16.4909C12.6877 14.3083 13.4034 12.6108 13.5075 11.9439C12.1646 14.563 10.0591 14.4902 9.17417 14.1264C11.0168 14.1628 12.2322 12.4744 12.6096 11.6256C9.39279 14.2083 7.05305 12.9139 6.28528 11.9439C8.93994 12.6714 11.2432 11.3982 12.0631 10.6707C7.19099 12.4848 4.59359 10.3353 3.9039 9.03379C6.9021 10.3433 10.1501 10.0948 11.3994 9.80678C4.71592 9.69765 2.21221 6.85122 1.7958 5.44165C2.38919 5.84179 3.52653 6.27527 4.02102 6.44199C1.24144 4.65956 0.182182 1.45543 0 0.0761719C4.29429 5.44165 12.4535 8.67003 15.0691 9.03379C17.6847 9.39755 18.1532 9.39755 19.5195 10.2615C20.8859 11.1254 22.0571 10.0796 22.4084 9.80678C22.7598 9.53396 23.4759 8.67003 22.6036 7.94251C21.7313 7.21498 19.8709 7.8061 18.7778 8.21533C17.9033 8.54271 16.6697 8.65487 16.1622 8.67003C17.8018 6.53293 19.3634 4.53225 21.4324 4.53225C23.0877 4.53225 23.996 5.80541 24.2432 6.44199L26 7.44234L24.1652 7.8061C23.1502 8.62456 22.8378 10.3524 22.2523 12.9442C21.7838 15.0177 20.027 16.9304 19.2072 17.6276C21.4559 15.5542 21.3674 12.7623 21.042 11.6256C19.9802 16.6091 13.7808 18.5219 10.8138 18.8553Z" fill="#3F75FF"/>
<path d="M15.6341 20.7779C14.0421 21.8256 16.3454 23.5625 15.4798 23.0644C14.6142 22.5662 12.5263 20.5014 14.6047 20.1019C16.6832 19.7024 19.0656 17.7261 19.0656 17.7261C19.0656 17.7261 17.226 19.7301 15.6341 20.7779Z" fill="#3F75FF"/>
</svg>

<svg xmlns="http://www.w3.org/2000/svg" width="106" height="27" fill="none"><path fill="#3F75FF" d="M46.636 5.448q0-1.44.876-2.256t2.484-.816q2.556 0 3.228 2.04.096.3-.204.408l-.492.168q-.168.06-.264.024-.084-.048-.144-.216-.228-.684-.732-1.008-.504-.336-1.392-.336-1.068 0-1.632.516T47.8 5.436v2.76q0 .936.564 1.464.576.516 1.632.516.9 0 1.404-.336t.732-1.032q.06-.18.144-.216.096-.048.264.012l.492.18q.312.096.204.408-.672 2.064-3.24 2.064-1.608 0-2.484-.816t-.876-2.256zM58.02 2.304q.588 0 .9-.144.288-.144.408.18l.132.372q.084.264-.18.396-.372.192-1.236.192h-.408q-1.332 0-1.812.516-.48.504-.48 1.836v.228q.576-.864 1.932-.864 1.176 0 1.824.636.66.636.66 1.764v1.452q0 1.128-.696 1.764-.684.624-2.016.624-1.308 0-2.004-.624-.696-.636-.696-1.764V5.94q0-1.944.732-2.784.732-.852 2.544-.852zm.66 5.112q0-.684-.42-1.056-.408-.372-1.212-.372-.732 0-1.164.36-.42.348-.456.78v1.728q0 .684.408 1.056.42.372 1.212.372.804 0 1.212-.372.42-.372.42-1.056zm2.169-.408q0-1.08.708-1.692.72-.612 1.98-.612 1.284 0 1.992.612t.708 1.692v1.956q0 1.068-.708 1.68t-1.992.612q-1.26 0-1.98-.612-.708-.612-.708-1.68zm4.32-.012q0-.624-.432-.972t-1.2-.348q-.756 0-1.188.348t-.432.972v1.968q0 .624.432.972t1.188.348q.768 0 1.2-.348t.432-.972zm2.82-1.944q.9-.348 2.208-.348 2.508 0 2.508 2.412v1.692q0 2.448-2.556 2.448-.624 0-1.56-.324v2.496q0 .168-.06.228t-.228.06h-.504q-.156 0-.216-.072-.06-.06-.06-.216V5.736q0-.3.084-.432.096-.132.384-.252m3.636 2.1q0-1.464-1.584-1.464-.66 0-1.272.18a.4.4 0 0 0-.156.096.4.4 0 0 0-.024.156v3.84q.9.312 1.476.312 1.56 0 1.56-1.5zm7.597 3.588q.108.18.06.264-.036.072-.24.072h-.468q-.24 0-.324-.048t-.168-.216l-.828-1.74q-.168-.36-.42-.504-.24-.156-.66-.156h-1.092v2.364q0 .168-.072.24-.06.06-.228.06h-.48q-.168 0-.24-.06-.06-.072-.06-.24V5.172q0-.168.06-.228.072-.06.24-.06h.48q.168 0 .228.06.072.06.072.228v2.244h1.056L77.926 5.1q.108-.156.204-.18a1.2 1.2 0 0 1 .36-.036h.456q.444 0 .18.336l-1.92 2.4q.576.216.96.984zm.894-4.776q.648-1.26 2.436-1.26 1.356 0 1.92.648t.564 1.776v3.132q0 .312-.096.444-.084.132-.336.24-.72.312-2.064.312-1.5 0-2.064-.456-.564-.468-.564-1.452 0-1.044.612-1.464t2.064-.42q.648 0 1.368.084v-.456q0-.696-.324-1.056-.312-.372-1.104-.372-1.044 0-1.488.732a.8.8 0 0 1-.168.18q-.06.024-.228-.036l-.372-.168q-.3-.12-.156-.408m3.84 2.472a16 16 0 0 0-1.488-.096q-.828 0-1.152.24t-.324.768q0 .516.3.768.312.24 1.152.24.912 0 1.332-.144a.26.26 0 0 0 .18-.264zm-30.744 7.12q.336 0 .204.312l-3 7.944q-.084.264-.384.264h-.492q-.312 0-.396-.252l-3-7.956q-.108-.312.216-.312h.468q.288 0 .396.06.108.048.168.216l2.088 5.76q.072.204.132.468.072.264.108.444.048.168.06.192h.048q.012-.024.048-.192.048-.18.108-.432.072-.264.144-.468l2.064-5.772q.06-.168.168-.216.12-.06.408-.06zm.219 4.452q0-1.08.708-1.692.72-.612 1.98-.612 1.284 0 1.992.612t.708 1.692v1.956q0 1.068-.708 1.68t-1.992.612q-1.26 0-1.98-.612-.708-.612-.708-1.68zm4.32-.012q0-.624-.432-.972t-1.2-.348q-.756 0-1.188.348t-.432.972v1.968q0 .624.432.972t1.188.348q.768 0 1.2-.348t.432-.972zm5.004-2.292h.384q.168 0 .228.072.06.06.06.216v.408q0 .156-.06.228-.06.06-.228.06h-.42q-.72 0-1.38.204-.168.06-.168.24v4.656q0 .168-.06.228t-.228.06h-.504q-.156 0-.216-.06-.06-.072-.06-.228v-5.04q0-.288.084-.42.096-.132.372-.252.9-.348 2.196-.372m1.106 2.304q0-1.08.708-1.692.72-.612 1.98-.612 1.284 0 1.992.612t.708 1.692v1.956q0 1.068-.708 1.68t-1.992.612q-1.26 0-1.98-.612-.708-.612-.708-1.68zm4.32-.012q0-.624-.432-.972t-1.2-.348q-.756 0-1.188.348t-.432.972v1.968q0 .624.432.972t1.188.348q.768 0 1.2-.348t.432-.972zm3.132-4.8q.168 0 .228.06t.06.228v2.52q.936-.3 1.692-.3 1.224 0 1.824.624.6.612.6 1.752v1.68q0 2.496-2.64 2.496-1.212 0-2.1-.372-.288-.132-.372-.252-.072-.12-.072-.408v-7.74q0-.156.06-.216.06-.072.216-.072zm3.324 4.92q0-1.428-1.5-1.428-.708 0-1.536.312v3.852q0 .168.168.228.528.192 1.236.192 1.632 0 1.632-1.548zm2.16.156q0-1.224.697-1.896.694-.672 2.016-.672 1.332 0 2.015.684.697.684.697 1.8v.696q0 .42-.444.42h-3.913v.576q0 .696.409 1.068.42.372 1.2.372 1.175 0 1.667-.828.108-.156.204-.18.109-.024.264.072l.325.168q.31.156.108.468-.708 1.236-2.58 1.236-1.345 0-2.005-.672t-.66-1.824zm4.356-.144q0-.72-.42-1.116t-1.224-.396q-.803 0-1.224.408-.42.396-.42 1.104v.348h3.288zm7.119-2.244q.168 0 .228.06t.06.228v6.204q0 2.592-2.592 2.592-1.74 0-2.436-1.224-.192-.3.12-.456l.348-.192q.168-.084.264-.06t.204.168q.468.804 1.488.804 1.536 0 1.536-1.584v-.648q-.924.252-1.68.252-2.436 0-2.436-2.376v-3.48q0-.168.06-.228t.228-.06h.504q.156 0 .216.072.06.06.06.216v3.444q0 1.428 1.512 1.428.72 0 1.536-.252v-4.62q0-.168.06-.228.072-.06.228-.06zm8.685 5.88q.108.312-.216.312h-.469q-.288 0-.407-.048-.108-.06-.168-.228l-.745-1.956H91.4l-.744 1.956q-.06.168-.18.228-.108.048-.395.048h-.42q-.324 0-.216-.312l3.12-7.968q.084-.264.395-.264h.48q.313 0 .397.252zm-3.528-6.024q-.217-.636-.216-1.128h-.072l-.013.168a5 5 0 0 1-.06.432 3 3 0 0 1-.132.516l-1.212 3.168h2.904zm7.06-.036h.384q.168 0 .228.072.06.06.06.216v.408q0 .156-.06.228-.06.06-.228.06h-.42q-.72 0-1.38.204-.167.06-.167.24v4.656q0 .168-.06.228t-.228.06h-.504q-.157 0-.217-.06-.06-.072-.06-.228v-5.04q0-.288.084-.42.096-.132.372-.252.9-.348 2.196-.372m2.913-1.26q.156 0 .216.06.072.06.072.228v1.152h1.572q.156 0 .216.072.06.06.06.216v.42q0 .156-.06.228-.06.06-.216.06h-1.572v2.796q0 .948.324 1.26.324.3 1.224.3.168 0 .228.06.072.06.072.228v.432q0 .156-.072.216-.06.06-.228.072-1.452.036-2.04-.504-.576-.552-.576-2.04v-2.82h-.996q-.156 0-.228-.06-.06-.072-.06-.228v-.42q0-.168.06-.228.072-.06.228-.06h.996v-1.152q0-.168.06-.228t.216-.06z"/><path stroke="#3F75FF" d="M35.5.076v25.918"/><path fill="#3F75FF" d="M10.814 18.855 0 25.995c3.396-2.593 8.94-7.321 10.814-9.504s2.59-3.88 2.694-4.547c-1.343 2.619-3.449 2.546-4.334 2.182 1.843.037 3.058-1.652 3.436-2.5-3.217 2.582-5.557 1.288-6.325.318 2.655.727 4.958-.546 5.778-1.273-4.872 1.814-7.47-.336-8.16-1.637 3 1.31 6.247 1.06 7.496.773-6.683-.11-9.187-2.956-9.603-4.365.593.4 1.73.833 2.225 1C1.241 4.66.182 1.455 0 .076 4.294 5.442 12.454 8.67 15.07 9.034s3.083.364 4.45 1.227 2.537-.181 2.888-.454c.352-.273 1.068-1.137.196-1.864s-2.733-.137-3.826.272c-.875.328-2.108.44-2.616.455 1.64-2.137 3.201-4.138 5.27-4.138 1.656 0 2.564 1.273 2.811 1.91l1.757 1-1.835.364c-1.015.819-1.327 2.546-1.913 5.138-.468 2.074-2.225 3.986-3.045 4.684 2.249-2.074 2.16-4.866 1.835-6.002-1.062 4.983-7.261 6.896-10.228 7.23M15.634 20.778c-1.592 1.048.711 2.785-.154 2.286-.866-.498-2.954-2.563-.875-2.962 2.078-.4 4.46-2.376 4.46-2.376s-1.839 2.004-3.43 3.052"/></svg>
